X: 12917
T: Fiddle Hill, The
R: jig
M: 6/8
K: Gmajor
|:D|G2 g f2 e|d^cd edB|G2 B c2 ^c|d3- dAB|
c2 B c2 d|cAF DF/G/A|1 ded cdc|B3- B2:|2 ded cBA|G3- G2||
K: DMaj
|:F/G/|A3 G3|FAd fed|c2 e B2 c|BA^G AE/F/=G|
ABA GAG|FAd f2 d|1 cBA gfe|d3- d2:|2 cBA ABc|d3 =c2||

